X: 20
M:4/4
L:1/8
K:D
(3ABc|dAFA DAFA|dAFG A2 (3ABc|dAFA DAFA|GFEF G2 (3ABc|
dAFA DAFA|dAFG A2 (3ABc|dBcA BGAF|GFEF G2||
dBcA BGAF|GFEF G2||

